lib/brands/icons/indesign.svg

<svg xmlns="http://www.w3.org/2000/svg" fill="none" aria-hidden="true" viewBox="0 0 48 48"><g id="indesign-Icon"><g id="Group"><path id="bg" fill="#49021F" d="M6 19.0286C6 14.4681 6 12.1879 6.88752 10.4461C7.6682 8.9139 8.9139 7.6682 10.4461 6.88752C12.1879 6 14.4681 6 19.0286 6H28.9714C33.5319 6 35.8121 6 37.5539 6.88752C39.0861 7.6682 40.3318 8.9139 41.1125 10.4461C42 12.1879 42 14.4681 42 19.0286V28.9714C42 33.5319 42 35.8121 41.1125 37.5539C40.3318 39.0861 39.0861 40.3318 37.5539 41.1125C35.8121 42 33.5319 42 28.9714 42H19.0286C14.4681 42 12.1879 42 10.4461 41.1125C8.9139 40.3318 7.6682 39.0861 6.88752 37.5539C6 35.8121 6 33.5319 6 28.9714V19.0286Z"/><g id="Vector"><path fill="#FF3366" d="M18.3327 16.5371V32.315C18.3327 32.4803 18.2602 32.5629 18.1154 32.5628H15.1931C15.0642 32.5628 14.9998 32.4802 15 32.315V16.5371C15 16.4051 15.0724 16.339 15.2173 16.3389H18.1395C18.2503 16.3228 18.3484 16.4234 18.3327 16.5371Z"/><path fill="#FF3366" d="M26.9784 32.8104C25.8668 32.8277 24.7655 32.5908 23.7544 32.1168C21.6078 31.0979 20.675 28.8427 20.6753 26.519C20.6567 24.201 21.8844 21.9924 23.8872 20.8964C25.2698 20.1109 26.896 19.9114 28.4515 20.0542V15.1747C28.4515 15.0593 28.4999 15.0013 28.5965 15.0013H31.6393C31.7225 14.9891 31.7961 15.0646 31.7843 15.1499V29.7885C31.7843 30.3925 31.8441 30.9944 31.8809 31.5967C31.8868 31.6996 31.8273 31.8013 31.7359 31.8444C30.9509 32.1802 30.1333 32.4293 29.2968 32.5874C28.532 32.7322 27.7561 32.8068 26.9784 32.8104ZM28.4515 29.739V22.977C26.2558 22.3669 24.1043 24.0433 24.1046 26.3704C24.0515 28.8074 26.2244 30.4071 28.4515 29.739Z"/></g></g></g></svg>

<svg xmlns="http://www.w3.org/2000/svg" fill="none" aria-hidden="true" viewBox="0 0 48 48"><path fill="#49021F" d="M6 19.029c0-4.56 0-6.841.888-8.583a8.143 8.143 0 0 1 3.558-3.558C12.188 6 14.468 6 19.03 6h9.942c4.56 0 6.841 0 8.583.888a8.143 8.143 0 0 1 3.558 3.558C42 12.188 42 14.468 42 19.03v9.942c0 4.56 0 6.841-.888 8.583a8.143 8.143 0 0 1-3.558 3.558C35.812 42 33.532 42 28.97 42h-9.94c-4.56 0-6.841 0-8.583-.888a8.143 8.143 0 0 1-3.558-3.558C6 35.812 6 33.532 6 28.97v-9.94Z"/><path fill="#F36" d="M18.333 16.537v15.778c0 .165-.073.248-.218.248h-2.922c-.129 0-.193-.083-.193-.248V16.537c0-.132.072-.198.217-.198h2.923c.11-.016.208.084.193.198Zm8.645 16.273a7.323 7.323 0 0 1-3.224-.693c-2.146-1.02-3.079-3.274-3.079-5.598-.018-2.318 1.21-4.527 3.212-5.623 1.383-.785 3.009-.985 4.564-.842v-4.88c0-.115.049-.173.145-.173h3.043a.131.131 0 0 1 .145.149v14.638c0 .604.06 1.206.097 1.809a.262.262 0 0 1-.145.247 11.73 11.73 0 0 1-2.44.743c-.764.145-1.54.22-2.318.223Zm1.473-3.071v-6.762c-2.195-.61-4.347 1.066-4.346 3.393-.053 2.437 2.12 4.037 4.346 3.369Z"/></svg>
